X:1
T:Title
%%score 1 2
L:1/8
Q:1/4=68
M:6/8
K:D
V:1 treble nm="Strings 1, Soprano"
V:2 bass nm="Strings 1, Bass"
V:1
 z3 z2 D | [DF][FA][FA] [FA][GB][FA] | [FA]3 [DF]2 [DA] | [CA][CE][DF] [EG][GB][FA] | %4
w: 1.~Lord~|Je sus,~ my~ sweet~ Rose~ of~|Shar on,~ My~|Pro phet,~ my~ Priest,~ and~ my~|
 [DF]3- [DF]2 D | [DF][FA][FA] [FA][GB][FA] | [FA]3 [DF]2 [Fd] | [Ec][Ec][DB] [CA][CA][D^G] | %8
w: King�~ * To~|Thee~ I~ will~ sing~ all~ my~|prais es,~ For~|bless ings~ Thy~ mer cy~ doth~|
 [CA]3- [CA]2 [DF] | [EG][EG][EG] [Gc][GB][GA] | [FA]3 [Fd]2 [FA] | [GB][GB][GB] [Bd][Ac][GB] | %12
w: bring.~ * All~|glo ry~ and~ hon or~ to~|Je sus,~ Who~|of fered~ His~ life~ on~ the~|
 [FA]3- [FA]2 [FA] | [Fd][Fd][Fd] [FA][GB][FA] | [FA]3 [DF]2 D | [CE][DF][EG] [DF][CF][CE] | D6 | %17
w: cross,~ * To~|o pen~ a~ foun tain~ for~|sin ners,~ And~|pur chase~ a~ world~ that~ was~|lost.~|
 [FA]3 [DF]2 [Fd] | [FA]3 .[DF]3 | [DE][DF][DG] [DF]2 [CE] | D6 | [FA]3 [DF]2 [Fd] | [FA]3 .[DF]3 | %23
w: ||||||
 [DE][DF][DG] [DF]2 [CE] | D6 |] %25
w: ||
V:2
 z3 z2 [D,F,] | [D,A,][D,D][D,D] [D,D][D,D][D,D] | [D,D]3 [D,A,]2 [D,F,] | %3
 [A,,A,][A,,A,][A,,A,] [A,,A,][A,,A,][A,,A,] | [D,A,]3- [D,A,]2 [D,F,] | %5
 [D,A,][D,D][D,D] [D,D][D,D][D,D] | [D,D]3 [D,A,]2 [D,A,] | %7
 [E,A,][E,A,][E,^G,] [E,A,][E,A,][E,B,] | [A,,A,]3- [A,,A,]2 [A,,A,] | %9
 [A,,A,][A,,A,][A,,A,] [A,,A,][A,,C][A,,C] | [D,D]3 [D,A,]2 [D,A,] | %11
 [D,D][G,D][G,D] [G,D][G,D][G,D] | [D,D]3- [D,D]2 [D,D] | [D,A,][D,A,][D,A,] [D,D][D,D][D,D] | %14
 [D,D]3 [D,A,]2 [D,F,] | [A,,A,][A,,A,][A,,A,] [A,,A,][A,,A,][A,,G,] | [D,F,]6 | %17
 [D,D]3 [D,A,]2 [D,A,] | [D,D]3 .[D,A,]3 | G,[G,A,][G,B,] A,2 [A,,G,] | [D,F,]6 | %21
 [D,D]3 [D,A,]2 [D,A,] | [D,D]3 .[D,A,]3 | G,[G,A,][G,B,] A,2 [A,,G,] | [D,F,]6 |] %25

